src/plp/components/img/active-sort.svg

<svg height="14" viewBox="0 0 24 14" width="24" xmlns="http://www.w3.org/2000/svg"><path d="m19 2v12m3-3-3 3-3-3m-16-7h14m-12 4h10m-8 4h6" fill="none" stroke="#ff1744" stroke-linecap="round" stroke-linejoin="round" stroke-width="2" transform="translate(1 -1)"/></svg>

<?xml version="1.0" encoding="UTF-8"?>
<svg width="24px" height="14px" viewBox="0 0 24 14" version="1.1" xmlns="http://www.w3.org/2000/svg" xmlns:xlink="http://www.w3.org/1999/xlink">
    <!-- Generator: Sketch 48.2 (47327) - http://www.bohemiancoding.com/sketch -->
    <title>Shape</title>
    <desc>Created with Sketch.</desc>
    <defs></defs>
    <g id="07_Kurta&amp;Kutis_PLP_Grid_View_Screen-Copy-5" stroke="none" stroke-width="1" fill="none" fill-rule="evenodd" transform="translate(-237.000000, -324.000000)" stroke-linecap="round" stroke-linejoin="round">
        <g id="Refine-Sort" transform="translate(0.000000, 301.000000)" stroke="#FF1744" stroke-width="2">
            <g id="noun_1181311" transform="translate(238.000000, 22.000000)">
                <g id="noun_562329">
                    <path d="M19,2 L19,14 M22,11 L19,14 L16,11 M0,4 L14,4 M2,8 L12,8 M4,12 L10,12" id="Shape"></path>
                </g>
            </g>
        </g>
    </g>
</svg>
